X: 55
T:A R..F..of Mr. Purcelle. HA.054
M:C
L:1/8
Q:160
C:in Hand B
S:Henry Atkinson's original MS,Hartburn,N'umberland,1694.
O:England
A:Hartburn,Northumberland
H:1/8
Z:vmp.Chris Partington.Jan.2004
K:F
F3A FA(cA)|F2f2 d3e|(fd)(fd) (cA)(cA)|G2g2 e3e|!
f3g (ga)(gf)|(ab)(ag) c3f|(df)(ba) (ge)(ce)|f2a2 f4||!
d'2a2fa (ba)|g2e2 (ce)(fe)|(fd)(cB) (Ac)(dc)|d2g2 e3e|!
(eg)(ag) (ab)(ag)|(Bf)(gf) (ga)(gf)|(cd)(_ed) (cA)(cA)|A2F2 F4|]
